svg/u1f360.svg

<svg viewBox="0 0 128 128" xmlns="http://www.w3.org/2000/svg">
  <path d="M111.15,14.95c0-0.96,1.86-11.2,3.84-10.69c3.65,0.94,2.76,5.33,2.9,7.25s0.68,8.03,0.96,11.19 c0.28,3.16,0,13.84-1.23,20.17s-4.4,14.44-5.91,17.6c-1.51,3.16-7.14,12.93-9.42,16.21c-2.48,3.57-12.33,12.32-15.63,14.59 c-3.55,2.44-10.7,6.47-12.77,7.29s-17.47-1.93-18.7-2.75s39.47-64.64,39.47-64.64L111.15,14.95z" fill="#BF0577"/>
  <path d="M29.73,60.16C29.18,69.24,32.9,77.35,34,79.28c1.1,1.93,3.44,5.36,7.43,8.53 c3.99,3.16,32.59,1.1,32.59,1.1s8.8-5.78,13.62-9.49c4.81-3.71,12.65-10.59,15.68-14.44c3.03-3.85,8.66-16.64,9.49-20.08 s2.61-15.82,2.75-21.45c0.14-5.64,0.28-11.14,0.41-13.75c0.14-2.61,1.11-5.12-1.65-6.05c-3.61-1.22-6.05,3.71-6.05,3.71 s-7.56,4.26-9.49,4.95c-1.93,0.69-15.82,0.83-24.34,3.71C65.61,19,53.8,26.33,46.79,31.97s-11.55,8.25-14.17,14.85 C30.01,53.42,29.92,57.13,29.73,60.16z" fill="#D5588B"/>
  <path d="M37.71,46.72c-3.7,5.22-4.23,11.49-3.99,16.92c0.28,6.19,2.89,13.48,7.43,17.47 c2.65,2.33,3.3,7.98,10.86,11.97c7.56,3.99,17.07,2.25,19.54,1.46c3.05-0.96,6.64-3.14,8.02-4.65c1.38-1.51,4.76-6.03,5.59-10.16 s2.03-17.27-3.13-25.76c-4.78-7.87-9.25-9.45-11.73-11.51c-2.48-2.06-5.09-3.03-8.11-4.13c-3.03-1.1-7.58-2.8-15.35-0.2 C41.47,39.92,40.05,43.42,37.71,46.72z" fill="#FCC11A"/>
  <path d="M72.88,35.39c-0.3,1.81,2.43,4.11,6.98,3.11c4.72-1.04,6.72-6.28,4.91-7.64 c-3.02-2.26-5.23,2.43-6.7,2.83C75.99,34.26,73.16,33.69,72.88,35.39z" fill="#A62910"/>
  <path d="M97.3,44.67c-3.45-0.48-3.18-5.48-0.27-8.53c2.58-2.7,7.65-1.83,7.51,0.81 c-0.06,1.13-1.51,0.44-3.11,2.23C100.08,40.69,100.68,45.14,97.3,44.67z" fill="#A62910"/>
  <path d="M99.73,23.61c-0.14,2.64,3.56,3.05,5.21,2.71c4.26-0.88,6.03-6.09,4.2-6.77 c-1.91-0.71-2.03,1.56-3.86,1.96C103.46,21.91,99.87,21.1,99.73,23.61z" fill="#A62910"/>
  <path d="M101.7,53.53c-0.78-2.18-6.1-1.83-8.87,3.79c-2.44,4.94-0.41,8.02,1.22,8.12 c3.11,0.2,2.84-4.04,3.93-5.96C99.73,56.37,102.71,56.37,101.7,53.53z" fill="#A62910"/>
  <path d="M11.06,111.34c0.69,1.24,7.71,12.47,30.36,12.66s30.34-11.09,30.83-11.98 c0.49-0.88,1.67-7.84,1.86-10.69c0.2-2.84,0.02-5.75-1.15-7.62s-5.35-3.67-6.73-4.95c-1.37-1.27-1.63-4.5-11.34-7.64 s-22.52-2.04-26.64-0.38c-2.54,1.03-2.9,2.68-6.03,3.66s-7.95,2.73-10.98,5.04c-3.73,2.84-2.53,5.11-2.92,6.28s0.1,6.08,0.59,8.73 C9.39,107.12,10.57,110.46,11.06,111.34z" fill="#D5588B"/>
  <path d="M10.57,96.53c-0.2,5.1,7.06,15.42,31.67,15.98c21.28,0.49,29.52-10,29.61-14.51 c0.1-4.61-4.22-4.71-7.26-7.45c-3.04-2.75-2.84-4.71-10.1-7.06c-6.48-2.1-17.06-2.65-23.24-0.98s-4.61,3.73-8.63,4.9 S10.77,91.23,10.57,96.53z" fill="#FAD675"/>
</svg>

<svg viewBox="0 0 128 128" xmlns="http://www.w3.org/2000/svg">
  <defs/>
  <path d="M111.15,14.95 C111.15,13.99 113.01,3.75 114.99,4.26 C118.64,5.2 117.75,9.59 117.89,11.51 C118.03,13.43 118.57,19.54 118.85,22.7 C119.13,25.86 118.85,36.54 117.62,42.87 C116.39,49.2 113.22,57.31 111.71,60.47 C110.2,63.63 104.57,73.4 102.29,76.68 C99.81,80.25 89.96,89 86.66,91.27 C83.11,93.71 75.96,97.74 73.89,98.56 C71.82,99.38 56.42,96.63 55.19,95.81 C53.96,94.99 94.66,31.17 94.66,31.17 L111.15,14.95 Z" fill="#BF0577"/>
  <path d="M29.73,60.16 C29.18,69.24 32.9,77.35 34,79.28 C35.1,81.21 37.44,84.64 41.43,87.81 C45.42,90.97 74.02,88.91 74.02,88.91 C74.02,88.91 82.82,83.13 87.64,79.42 C92.45,75.71 100.29,68.83 103.32,64.98 C106.35,61.13 111.98,48.34 112.81,44.9 C113.64,41.46 115.42,29.08 115.56,23.45 C115.7,17.81 115.84,12.31 115.97,9.7 C116.11,7.09 117.08,4.58 114.32,3.65 C110.71,2.43 108.27,7.36 108.27,7.36 C108.27,7.36 100.71,11.62 98.78,12.31 C96.85,13 82.96,13.14 74.44,16.02 C65.61,19 53.8,26.33 46.79,31.97 C39.78,37.61 35.24,40.22 32.62,46.82 C30.01,53.42 29.92,57.13 29.73,60.16 Z" fill="#D5588B"/>
  <path d="M37.71,46.72 C34.01,51.94 33.48,58.21 33.72,63.64 C34,69.83 36.61,77.12 41.15,81.11 C43.8,83.44 44.45,89.09 52.01,93.08 C59.57,97.07 69.08,95.33 71.55,94.54 C74.6,93.58 78.19,91.4 79.57,89.89 C80.95,88.38 84.33,83.86 85.16,79.73 C85.99,75.6 87.19,62.46 82.03,53.97 C77.25,46.1 72.78,44.52 70.3,42.46 C67.82,40.4 65.21,39.43 62.19,38.33 C59.16,37.23 54.61,35.53 46.84,38.13 C41.47,39.92 40.05,43.42 37.71,46.72 Z" fill="#FCC11A"/>
  <path d="M72.88,35.39 C72.58,37.2 75.31,39.5 79.86,38.5 C84.58,37.46 86.58,32.22 84.77,30.86 C81.75,28.6 79.54,33.29 78.07,33.69 C75.99,34.26 73.16,33.69 72.88,35.39 Z" fill="#A62910"/>
  <path d="M97.3,44.67 C93.85,44.19 94.12,39.19 97.03,36.14 C99.61,33.44 104.68,34.31 104.54,36.95 C104.48,38.08 103.03,37.39 101.43,39.18 C100.08,40.69 100.68,45.14 97.3,44.67 Z" fill="#A62910"/>
  <path d="M99.73,23.61 C99.59,26.25 103.29,26.66 104.94,26.32 C109.2,25.44 110.97,20.23 109.14,19.55 C107.23,18.84 107.11,21.11 105.28,21.51 C103.46,21.91 99.87,21.1 99.73,23.61 Z" fill="#A62910"/>
  <path d="M101.7,53.53 C100.92,51.35 95.6,51.7 92.83,57.32 C90.39,62.26 92.42,65.34 94.05,65.44 C97.16,65.64 96.89,61.4 97.98,59.48 C99.73,56.37 102.71,56.37 101.7,53.53 Z" fill="#A62910"/>
  <path d="M11.06,111.34 C11.75,112.58 18.77,123.81 41.42,124 C64.07,124.19 71.76,112.91 72.25,112.02 C72.74,111.14 73.92,104.18 74.11,101.33 C74.31,98.49 74.13,95.58 72.96,93.71 C71.79,91.84 67.61,90.04 66.23,88.76 C64.86,87.49 64.6,84.26 54.89,81.12 C45.18,77.98 32.37,79.08 28.25,80.74 C25.71,81.77 25.35,83.42 22.22,84.4 C19.09,85.38 14.27,87.13 11.24,89.44 C7.51,92.28 8.71,94.55 8.32,95.72 C7.93,96.89 8.42,101.8 8.91,104.45 C9.39,107.12 10.57,110.46 11.06,111.34 Z" fill="#D5588B"/>
  <path d="M10.57,96.53 C10.37,101.63 17.63,111.95 42.24,112.51 C63.52,113 71.76,102.51 71.85,98 C71.95,93.39 67.63,93.29 64.59,90.55 C61.55,87.8 61.75,85.84 54.49,83.49 C48.01,81.39 37.43,80.84 31.25,82.51 C25.07,84.18 26.64,86.24 22.62,87.41 C18.6,88.58 10.77,91.23 10.57,96.53 Z" fill="#FAD675"/>
</svg>
